app/assets/images/logo-nada-noir.svg

<svg fill="none" height="204" viewBox="0 0 662 204" width="662" xmlns="http://www.w3.org/2000/svg"><path d="m595.768 167.558.001-.011.002-.01c.939-5.49 3.441-10.736 6.589-15.105 3.156-4.38 6.874-7.759 10.118-9.587 4.916-2.741 12.28-4.945 19.522-4.945 3.478 0 6.952.563 10.232 1.685 6.469 2.376 11.172 7.292 13.893 14.612 3.897 10.523 4.584 20.039 2.555 27.637-2.014 7.542-6.716 13.286-13.872 16.429-4.966 2.1-9.698 3.037-14.208 3.037-12.357 0-23.141-6.807-30.074-14.993l-.008-.009c-4.379-5.109-6.051-11.588-4.75-18.74z" stroke="#030303" stroke-width="4"/><path d="m503.9 176.6c-14 0-23.9-6.6-23.9-19.8 0-12.4 9.1-20.9 29.4-20.9 9.6-.3 22 1.9 28 4.1v14.6c-3.8 11.5-18.1 22-33.5 22zm-6.1 26.4c23.9 0 37.4-12.9 42.6-19.5l3 17.3h25.3v-89.9c0-40.7-23.1-57.8-60-57.8-23.6 0-44.5 11-54.4 27l21.4 15.7c6.9-8.8 18.4-15.7 31.6-15.7 20.1 0 30.3 6.9 30.3 27.8v10.4c-5.8-1.9-17.3-5.5-30.8-5.5-37.4 0-57.5 20.3-57.5 46.5.1 25.6 20.5 43.7 48.5 43.7zm-140-28.1c-15.1 0-36.9-11.8-36.9-47.6 0-34.4 19.8-46.5 37.1-46.5 17.1 0 35.2 15.1 35.2 46.5.1 33.1-20 47.6-35.4 47.6zm-4.4 28.1c16.5 0 35.2-8.5 41.5-21.7l3.3 19.5h26.1v-200.7000015h-33.5v72.6000015c-5-9.9-20.9-19.5-38.5-19.5-30 0-64.1 22-64.1 74.2.1 51.9 35.5 75.6 65.2 75.6zm-151.2-26.4c-14 0-23.9-6.6-23.9-19.8 0-12.4 9.1-20.9 29.4-20.9 9.6-.3 22 1.9 28.1 4.1v14.6c-3.9 11.5-18.2 22-33.6 22zm-6.1 26.4c23.9 0 37.4-12.9 42.6-19.5l3 17.3h25.3v-89.9c0-40.7-23.1-57.8-60-57.8-23.6 0-44.6 11-54.4 27l21.5 15.7c6.9-8.8 18.4-15.7 31.6-15.7 20.1 0 30.2 6.9 30.2 27.8v10.4c-5.8-1.9-17.3-5.5-30.8-5.5-37.4 0-57.5 20.3-57.5 46.5.1 25.6 20.5 43.7 48.5 43.7zm-195.200098-2.2h32.699998v-86.9c0-21.2 12.6-34.4 30-34.4 18.7 0 29.4 12.4 29.4 34.4v86.9h32.4001v-88c0-41.5-23.6-61.1-53.1001-61.1-18.1 0-36.6 9.6-42.4 21.2l-4.4-17.1h-24.599998z" fill="#030303"/></svg>

<svg width="662" height="204" viewBox="0 0 662 204" fill="none" xmlns="http://www.w3.org/2000/svg">
<path d="M596.751 167.737L596.754 167.721L596.757 167.705C597.665 162.395 600.092 157.289 603.171 153.016C606.261 148.728 609.875 145.46 612.967 143.717C617.74 141.056 624.937 138.9 632 138.9C635.367 138.9 638.728 139.445 641.897 140.528C648.051 142.791 652.555 147.465 655.187 154.543C659.033 164.929 659.676 174.229 657.714 181.576C655.775 188.839 651.271 194.33 644.412 197.345C639.563 199.394 634.965 200.3 630.6 200.3C618.615 200.3 608.089 193.689 601.289 185.661L601.283 185.654L601.278 185.648C597.109 180.784 595.501 174.615 596.751 167.737Z" stroke="#030303" stroke-width="6"/>
<path d="M503.9 176.6C489.9 176.6 480 170 480 156.8C480 144.4 489.1 135.9 509.4 135.9C519 135.6 531.4 137.8 537.4 140V154.6C533.6 166.1 519.3 176.6 503.9 176.6ZM497.8 203C521.7 203 535.2 190.1 540.4 183.5L543.4 200.8H568.7V110.9C568.7 70.2 545.6 53.1 508.7 53.1C485.1 53.1 464.2 64.1 454.3 80.1L475.7 95.8C482.6 87 494.1 80.1 507.3 80.1C527.4 80.1 537.6 87 537.6 107.9V118.3C531.8 116.4 520.3 112.8 506.8 112.8C469.4 112.8 449.3 133.1 449.3 159.3C449.4 184.9 469.8 203 497.8 203ZM357.8 174.9C342.7 174.9 320.9 163.1 320.9 127.3C320.9 92.9 340.7 80.8 358 80.8C375.1 80.8 393.2 95.9 393.2 127.3C393.3 160.4 373.2 174.9 357.8 174.9ZM353.4 203C369.9 203 388.6 194.5 394.9 181.3L398.2 200.8H424.3V0.0999985H390.8V72.7C385.8 62.8 369.9 53.2 352.3 53.2C322.3 53.2 288.2 75.2 288.2 127.4C288.3 179.3 323.7 203 353.4 203ZM202.2 176.6C188.2 176.6 178.3 170 178.3 156.8C178.3 144.4 187.4 135.9 207.7 135.9C217.3 135.6 229.7 137.8 235.8 140V154.6C231.9 166.1 217.6 176.6 202.2 176.6ZM196.1 203C220 203 233.5 190.1 238.7 183.5L241.7 200.8H267V110.9C267 70.2 243.9 53.1 207 53.1C183.4 53.1 162.4 64.1 152.6 80.1L174.1 95.8C181 87 192.5 80.1 205.7 80.1C225.8 80.1 235.9 87 235.9 107.9V118.3C230.1 116.4 218.6 112.8 205.1 112.8C167.7 112.8 147.6 133.1 147.6 159.3C147.7 184.9 168.1 203 196.1 203ZM0.899902 200.8H33.5999V113.9C33.5999 92.7 46.1999 79.5 63.5999 79.5C82.2999 79.5 92.9999 91.9 92.9999 113.9V200.8H125.4V112.8C125.4 71.3 101.8 51.7 72.2999 51.7C54.1999 51.7 35.6999 61.3 29.8999 72.9L25.4999 55.8H0.899902V200.8Z" fill="#030303"/>
</svg>
